X:1
T:The Gathering  "K.H.T.S. 95"
M:6/8
L:1/8
Q:80
C:Trad.
S:Slow Air
K:HP
|: A2{GAG}A{GdG}c2d | \
{gef}e2d{g}c{e}A2 | \
{g}A2{GAG}A{GdG}ca2 |
{fg}fd2{gef}e3 | | \
a2{GdG}aA2{GAG}A | \
{g}A2{d}c{g}B{e}G2 |
{g}A2{GAG}A{g}ce2 | \
{g}e{d}B2{G}A3 :: \
{g}ce2{ag}a2e |
{g}f2d{g}eA2 | \
{g}ce2{ag}a2e | \
{g}fd2{g}e3| |
{g}e2d{g}c{e}A2 | \
{Gdc}d2c{g}B{e}G2 | \
{g}A2{GAG}A{g}ce2 |
{g}e{d}B2{G}A3 :|
